_includes/icons/ios-arrow-pointing-to-right-2.svg

<svg fill="#666" height="50" viewBox="0 0 50 50" width="50" xmlns="http://www.w3.org/2000/svg"><path d="m14.980469 2.980469c-.816406 0-1.546875.496094-1.851563 1.25-.308593.753906-.125 1.617187.457032 2.183594l18.585937 18.585937-18.585937 18.585938c-.523438.5-.734375 1.246093-.550782 1.949218.183594.699219.730469 1.246094 1.429688 1.429688.703125.183594 1.449219-.027344 1.949219-.550781l20-20c.78125-.78125.78125-2.046875 0-2.828125l-20-20c-.378907-.386719-.894532-.605469-1.433594-.605469z"/></svg>

<svg xmlns="http://www.w3.org/2000/svg" viewBox="0 0 50 50" width="50" height="50" fill="#666"><path d="M 14.980469 2.980469 C 14.164063 2.980469 13.433594 3.476563 13.128906 4.230469 C 12.820313 4.984375 13.003906 5.847656 13.585938 6.414063 L 32.171875 25 L 13.585938 43.585938 C 13.0625 44.085938 12.851563 44.832031 13.035156 45.535156 C 13.21875 46.234375 13.765625 46.78125 14.464844 46.964844 C 15.167969 47.148438 15.914063 46.9375 16.414063 46.414063 L 36.414063 26.414063 C 37.195313 25.632813 37.195313 24.367188 36.414063 23.585938 L 16.414063 3.585938 C 16.035156 3.199219 15.519531 2.980469 14.980469 2.980469 Z"/></svg>
